proprietary/assets/icons/gebruiksvoorwerpen/baret.svg

<svg height="64" viewBox="0 0 64 64" width="64" xmlns="http://www.w3.org/2000/svg"><path d="m0 0h64v64h-64z" fill="none"/><path d="m61.6577 25.567-29.0437-9.369c-.3992-.1288-.8288-.1288-1.228 0l-29.0437 9.369c-.4482.1446-.4662.7721-.027.9421l5.6847 2.2006v7.0689c-.6096.5491-1 1.3364-1 2.2214 0 .7645.2948 1.4546.7656 1.9844-1.4338 2.2515-3.1959 6.0468-3.295 7.7803-.1176 2.0588 2.5294 2.9184 3.8235 3.1537s4.3529.0816 4.6471-2.4478c.2288-1.9684-.5732-6.3342-.9412-8.1794v-.0698c.6096-.5491 1-1.3364 1-2.2214s-.3904-1.6723-1-2.2214v-5.5205l15.6912 6.0844c-.0007.0632-.0331.2836-.3839.2636l-11.3073-1.801v10.1261h.0082c-.0006.0238-.0082.0448-.0082.0688 0 3.866 7.1635 7 16 7s16-3.134 16-7c0-.024-.0076-.045-.0082-.0688h.0082v-13.1247l13.6847-5.2973c.4393-.1701.4213-.7976-.027-.9422z"/></svg>

<?xml version="1.0" encoding="utf-8"?>
<!-- Generator: Adobe Illustrator 17.1.0, SVG Export Plug-In . SVG Version: 6.00 Build 0)  -->
<svg version="1.2" baseProfile="tiny" xmlns="http://www.w3.org/2000/svg" xmlns:xlink="http://www.w3.org/1999/xlink" x="0px"
	 y="0px" width="64px" height="64px" viewBox="0 0 64 64" xml:space="preserve">
<g id="_x36_4px_Boxes">
	<rect fill="none" width="64" height="64"/>
</g>
<g id="Icon">
	<path d="M61.6577,25.567l-29.0437-9.369c-0.3992-0.1288-0.8288-0.1288-1.228,0L2.3423,25.567
		c-0.4482,0.1446-0.4662,0.7721-0.027,0.9421L8,28.7097v7.0689C7.3904,36.3277,7,37.115,7,38c0,0.7645,0.2948,1.4546,0.7656,1.9844
		c-1.4338,2.2515-3.1959,6.0468-3.295,7.7803C4.353,49.8235,7,50.6831,8.2941,50.9184S12.647,51,12.9412,48.4706
		C13.17,46.5022,12.368,42.1364,12,40.2912v-0.0698c0.6096-0.5491,1-1.3364,1-2.2214s-0.3904-1.6723-1-2.2214v-5.5205
		l15.6912,6.0844c-0.0007,0.0632-0.0331,0.2836-0.3839,0.2636L16,34.8051v10.1261h0.0082C16.0076,44.955,16,44.976,16,45
		c0,3.866,7.1635,7,16,7s16-3.134,16-7c0-0.024-0.0076-0.045-0.0082-0.0688H48V31.8065l13.6847-5.2973
		C62.124,26.3391,62.106,25.7116,61.6577,25.567z"/>
</g>
</svg>
